X: 4362
M: 6/8
L: 1/8
K: C
e2B dcA | G2E G2A | G2D G2A | G2E G2c |\
e2B dcA | G2E G2A | G2D G2A | G2E e2d |
c2B A2G | FAG F3  | FAG FAG | E2G e2d |\
c2B A2G | FAG F3  | FAG FAG | [c3E3] |]


